src/assets/duotone/BluetoothCircle.svg

<?xml version="1.0" encoding="UTF-8"?>
<svg width="24" height="24" viewBox="0 0 24 24" xmlns="http://www.w3.org/2000/svg">
 <path d="m12 22c5.5228 0 10-4.4772 10-10 0-5.5228-4.4772-10-10-10-5.5228 0-10 4.4772-10 10 0 5.5228 4.4772 10 10 10z" opacity=".4"/>
 <path d="m12.119 6.0024c0.5807-0.27789 1.1481 0.01554 1.4914 0.30161l2.058 1.7184c5e-4 4.3e-4 1e-3 8.5e-4 0.0016 0.00127 0.6353 0.52729 0.6666 1.4618 0.0441 2.022l-2.137 1.9595 2.137 1.9594c0.6225 0.5603 0.5912 1.4948-0.0441 2.0221-5e-4 4e-4 -0.0011 8e-4 -0.0016 0.0013l-2.0575 1.7179-0.0016 0.0013c-0.3433 0.285-0.9053 0.5691-1.4807 0.2998-0.5769-0.27-0.7183-0.8858-0.7183-1.3368v-2.6782l-2.3132 2.121c-0.3053 0.2799-0.77973 0.2593-1.0597-0.046-0.27993-0.3053-0.25937-0.7797 0.04593-1.0596l3.2742-3.0022-3.2742-3.0022c-0.3053-0.27993-0.32586-0.75436-0.04593-1.0597 0.27994-0.3053 0.75437-0.32587 1.0597-0.04593l2.3132 2.1209v-2.6781c0-0.44294 0.134-1.0627 0.7087-1.3378zm0.7913 7.4264 1.6599 1.522-1.6599 1.386v-2.908zm0-2.8473v-2.908l1.6599 1.386-1.6599 1.522z" clip-rule="evenodd" fill-rule="evenodd"/>
</svg>

<svg width="24" height="24" viewBox="0 0 24 24"  xmlns="http://www.w3.org/2000/svg">
<path opacity="0.4" d="M12 22C17.5228 22 22 17.5228 22 12C22 6.47715 17.5228 2 12 2C6.47715 2 2 6.47715 2 12C2 17.5228 6.47715 22 12 22Z" />
<path fill-rule="evenodd" clip-rule="evenodd" d="M12.1186 6.0024C12.6993 5.72451 13.2667 6.01794 13.61 6.30401L15.668 8.02238C15.6685 8.02281 15.669 8.02323 15.6696 8.02365C16.3049 8.55094 16.3362 9.48542 15.7137 10.0457L13.5767 12.0052L15.7137 13.9646C16.3362 14.5249 16.3049 15.4594 15.6696 15.9867C15.6691 15.9871 15.6685 15.9875 15.668 15.988L13.6105 17.7059L13.6089 17.7072C13.2656 17.9922 12.7036 18.2763 12.1282 18.007C11.5513 17.737 11.4099 17.1212 11.4099 16.6702V13.992L9.09672 16.113C8.79142 16.3929 8.31699 16.3723 8.03705 16.067C7.75712 15.7617 7.77768 15.2873 8.08298 15.0074L11.3572 12.0052L8.08298 9.00298C7.77768 8.72305 7.75712 8.24862 8.03705 7.94332C8.31699 7.63802 8.79142 7.61745 9.09672 7.89739L11.4099 10.0183V7.34017C11.4099 6.89723 11.5439 6.27745 12.1186 6.0024ZM12.9099 13.4288L14.5698 14.9508L12.9099 16.3368V13.4288ZM12.9099 10.5815V7.67355L14.5698 9.0595L12.9099 10.5815Z" />
</svg>
